X:1
T:Keswick, 76.76.77.76
T:Keswick, 76.76.77.76
T:Henry John Gauntlett (1805–1876)
T:Public Domain Courtesy of the Cyber Hymnal™
C:Henry John Gauntlett (1805–1876)
Z:Public Domain
Z:Courtesy of the Cyber Hymnal™
%%score ( 1 2 ) ( 3 4 )
L:1/8
Q:1/4=120
M:3/4
K:G
V:1 treble 
V:2 treble 
V:3 bass 
V:4 bass 
V:1
 [Dd]4 [Dd]2 | (d2 c2) [FB]2 | B2 [FA]2 G2 | [Gc]4 [Fc]2 | ([GB]2 [FA]2) G2 | (G2 A2) [DF]2 | %6
 [DG]6 | ([D=F]4 [DF]2) | ([D=F]2 [CE]2) [EG]2 | [EG]2 [DF]2 [Cc]2 | [Dc]4 [DB]2 | %11
 ([^CB]2 [DA]2) D2 | [DF]4 [^CE]2 | D6 | (D2 E2) [DF]2 | ([DG]2 [FA]2) [GB]2 | (d2 c2) [DB]2 | %17
 (d2 c4) | (D2 [DE]2) [DF]2 | ([DG]2 [FA]2) [GB]2 | e4 [Ge]2 | (f2 d4) | ([Gd]2 [Dc]2) [DB]2 | %23
 (B2 A2) [=CE]2 | (G2 F2) [DA]2 | (D2 c2) [DB]2 | (B2 E2) [EA]2 | (A2 G2) [DF]2 | [DG]6 |] %29
V:2
 x6 | G4 x2 | ([EB]2 G2) x2 | x6 | x4 G2 | E4 x2 | x6 | x6 | x6 | x6 | x6 | x4 D2 | x6 | D6 | %14
 D4 x2 | x6 | D4 x2 | D6 | D2 x4 | x6 | (G2 F2) x2 | F6 | x6 | ^C4 x2 | D4 x2 | D4 x2 | E4 x2 | %27
 D4 x2 | x6 |] %29
V:3
 [G,B,]4 [F,A,]2 | [E,G,]4 [D,G,]2 | (G,2 A,2) [B,,D,]2 | [A,,A,]4 [A,,D,]2 | %4
 ([G,,D]2 [A,,C]2) [B,,B,]2 | [C,A,]4 [D,A,]2 | [G,,B,]6 | ([B,,G,]4 [B,,G,]2) | [C,G,]4 [^C,A,]2 | %9
 [D,A,]4 [E,G,]2 | [F,A,]4 G,2 | ([E,G,]2 [F,A,]2) [G,B,]2 | A,4 [A,,G,]2 | [D,F,]6 | %14
 (F,2 G,2) [C,A,]2 | ([B,,D]2 [A,,C]2) [G,,B,]2 | [F,,A,]4 [G,,G,]2 | (G,2 F,4) | %18
 ([D,F,]2 [D,G,]2) [C,A,]2 | ([B,,D]2 [A,,C]2) [G,,B,]2 | (B,2 A,2) [B,,G,]2 | ([A,,C]4 [C,A,]2) | %22
 ([B,,D,]2 [A,,F,]2) G,2 | (G,2 A,2) [E,A,]2 | [D,A,]4 [C,F,]2 | ([B,,G,]2 [A,,F,]2) [G,,G,]2 | %26
 (G,2 A,2) [C,C]2 | [D,B,]4 [D,A,]2 | [G,,B,]6 |] %29
V:4
 x6 | x6 | C,4 x2 | x6 | x6 | x6 | x6 | x6 | x6 | x6 | x4 G,2 | x6 | A,4 x2 | x6 | D,4 x2 | x6 | %16
 x6 | D,6 | x6 | x6 | C,4 x2 | x6 | x6 | E,4 x2 | x6 | x6 | C,4 x2 | x6 | x6 |] %29

